X: 33916
T: Red Skies
R: slide
M: 12/8
K: Adorian
|:EBE c2d z2e ^dBA|EBE c2d D2E FED|
|:AGF G2AAGB AFD|BAB dBd e2ffg2|
AB=c B2AABe dBA|1 EDE GEG AB=c BAG:|2 ez2 {^d}e3 edB AGF||

